X: 1
T: Brookline-a
P: piffero primo a0897a
O: Dan Moylan
%R: march
F: http://ancients.sudburymuster.org/mus/sng/pdf/brookline-aC0.pdf
Z: 2020 John Chambers <jc:trillian.mit.edu>
M: 2/4
L: 1/16
K: D
(3ABc |\
d2A2 e2A2 | fefg a2A2 | b2a2 g2f2 | edcB A2 (3ABc |\
d2A2 e2A2 | fefg a2A2 | b2a2 agfe | d4 z2 :|
|: (3efg |\
a2g2 f2e2 | a2g2 f2e2 | b2a2 g2f2 | e4 z2a2 |\
b2A2 a2A2 | bagf e2A2 | b2a2 agfe | d4 z2 :|
